archdroid-icon-theme/Archdroid-BlueGrey/apps/scalable/applets-screenshooter.svg

<svg fill="#607D8B" height="48" viewBox="0 0 48 48" width="48" xmlns="http://www.w3.org/2000/svg"><path d="m0 14v28c0 2.21 1.79 4 4 4h28v-4h-28v-28zm22-12-3.66 4h-6.34c-2.21 0-4 1.79-4 4v24c0 2.21 1.79 4 4 4h32c2.21 0 4-1.79 4-4v-24c0-2.21-1.79-4-4-4h-6.34l-3.66-4zm6 30c-5.52 0-10-4.48-10-10s4.48-10 10-10 10 4.48 10 10-4.48 10-10 10zm6.4-10a6.4 6.4 0 0 1 -6.4 6.4 6.4 6.4 0 0 1 -6.4-6.4 6.4 6.4 0 0 1 6.4-6.4 6.4 6.4 0 0 1 6.4 6.4z" fill="#607D8B"/></svg>

<svg fill="#607D8B" height="48" version="1.1" viewBox="0 0 48 48" width="48" xmlns="http://www.w3.org/2000/svg"><path d="m0 14l0 28C0 44.21 1.79 46 4 46L32 46 32 42 4 42 4 14 0 14ZM22 2L18.34 6 12 6C9.79 6 8 7.79 8 10l0 24c0 2.21 1.79 4 4 4l32 0c2.21 0 4-1.79 4-4L48 10C48 7.79 46.21 6 44 6L37.66 6 34 2 22 2Zm6 30c-5.52 0-10-4.48-10-10 0-5.52 4.48-10 10-10 5.52 0 10 4.48 10 10 0 5.52-4.48 10-10 10zM34.4 22A6.4 6.4 0 0 1 28 28.4 6.4 6.4 0 0 1  21.6 22 6.4 6.4 0 0 1  28 15.6 6.4 6.4 0 0 1  34.4 22Z" fill="#607D8B"/></svg>
